data/zen-dots.svg

<svg width="80.668" height="16.8" viewBox="0 0 80.668 16.8" xmlns="http://www.w3.org/2000/svg"><path transform="translate(0 13.02) scale(.014 -.014)" d="M30 0V121L567 583H53V713H799V592L261 130H797V0Z"/><path transform="translate(11.606 13.02) scale(.014 -.014)" d="m319-5q-134 0-209 66.5t-75 195.5q0 130 75 196.5t209 66.5h250q88 0 134.5-41.5t46.5-118.5q0-157-181-157h-378q21-93 128-93h405v-115zm0 410q-103 0-127-87h370q20 0 31.5 12t11.5 33q0 42-43 42z"/><path transform="translate(22.596 13.02) scale(.014 -.014)" d="m55 0v515h449q88 0 128.5-43.5t40.5-114.5v-357h-145v340q0 60-60 60h-268v-400z"/><path transform="translate(37.618 13.02) scale(.014 -.014)" d="m70 0v715h118l320 1q194 0 301-91t107-267-107-267-301-91zm427 586h-267v-456h267q126 0 191 55t65 173q0 119-65 173.5t-191 54.5z"/><path transform="translate(50.862 13.02) scale(.014 -.014)" d="m319-5q-134 0-209 66.5t-75 195.5q0 130 75 196.5t209 66.5h185q134 0 209-66.5t75-196.5q0-129-75-195.5t-209-66.5zm0 115h185q65 0 99.5 36t34.5 111q0 76-34.5 112t-99.5 36h-185q-65 0-99.5-36t-34.5-112q0-75 34.5-111t99.5-36z"/><path transform="translate(62.384 13.02) scale(.014 -.014)" d="m323 0q-87 0-128 43.5t-41 114.5v242h-149v115h149v158h145v-158h214v-115h-214v-224q0-61 60-61h182v-115z"/><path transform="translate(70.238 13.02) scale(.014 -.014)" d="m38-5v115h490q42 0 42 47 0 46-42 46h-317q-89 0-135 40.5t-46 116.5q0 77 46.5 118.5t134.5 41.5h456v-115h-449q-43 0-43-42 0-21 12-33t31-12h336q78 0 119.5-40.5t41.5-117.5q0-78-42-121.5t-119-43.5z"/></svg>

<?xml version="1.0" encoding="utf-8" ?>
<svg baseProfile="tiny" height="100%" version="1.2" width="100%" xmlns="http://www.w3.org/2000/svg" xmlns:ev="http://www.w3.org/2001/xml-events" xmlns:xlink="http://www.w3.org/1999/xlink"><defs /><g><path d="M30 0V121L567 583H53V713H799V592L261 130H797V0Z" transform="translate(0.0, 72) scale(0.072, -0.072)" /><path d="M319 -5Q185 -5 110.0 61.5Q35 128 35 257Q35 387 110.0 453.5Q185 520 319 520H569Q657 520 703.5 478.5Q750 437 750 360Q750 203 569 203H191Q212 110 319 110H724V-5ZM319 405Q216 405 192 318H562Q582 318 593.5 330.0Q605 342 605 363Q605 405 562 405Z" transform="translate(59.687999999999995, 72) scale(0.072, -0.072)" /><path d="M55 0V515H504Q592 515 632.5 471.5Q673 428 673 357V0H528V340Q528 400 468 400H200V0Z" transform="translate(116.208, 72) scale(0.072, -0.072)" /><path d="M70 0V715H188L508 716Q702 716 809.0 625.0Q916 534 916 358Q916 182 809.0 91.0Q702 0 508 0ZM497 586H230V130H497Q623 130 688.0 185.0Q753 240 753 358Q753 477 688.0 531.5Q623 586 497 586Z" transform="translate(193.464, 72) scale(0.072, -0.072)" /><path d="M319 -5Q185 -5 110.0 61.5Q35 128 35 257Q35 387 110.0 453.5Q185 520 319 520H504Q638 520 713.0 453.5Q788 387 788 257Q788 128 713.0 61.5Q638 -5 504 -5ZM319 110H504Q569 110 603.5 146.0Q638 182 638 257Q638 333 603.5 369.0Q569 405 504 405H319Q254 405 219.5 369.0Q185 333 185 257Q185 182 219.5 146.0Q254 110 319 110Z" transform="translate(261.576, 72) scale(0.072, -0.072)" /><path d="M323 0Q236 0 195.0 43.5Q154 87 154 158V400H5V515H154V673H299V515H513V400H299V176Q299 115 359 115H541V0Z" transform="translate(320.832, 72) scale(0.072, -0.072)" /><path d="M38 -5V110H528Q570 110 570 157Q570 203 528 203H211Q122 203 76.0 243.5Q30 284 30 360Q30 437 76.5 478.5Q123 520 211 520H667V405H218Q175 405 175 363Q175 342 187.0 330.0Q199 318 218 318H554Q632 318 673.5 277.5Q715 237 715 160Q715 82 673.0 38.5Q631 -5 554 -5Z" transform="translate(361.224, 72) scale(0.072, -0.072)" /></g></svg>
